src/svgs/pug.svg

<?xml version="1.0" encoding="UTF-8" standalone="no"?>
<svg
   viewBox="0 0 1200 1000"
   version="1.1"
   id="svg1505"
   xmlns="http://www.w3.org/2000/svg"
   xmlns:svg="http://www.w3.org/2000/svg">
  <defs
     id="defs1509" />
  <path
     id="path1501"
     d="M 594.05078 300.04688 C 555.81953 299.9625 517.92422 303.67461 480.19922 311.09961 C 475.19922 312.09961 470.49961 313.80078 465.59961 311.30078 C 465.59961 312.00078 465.50039 312.59922 465.40039 313.19922 C 466.60039 317.19922 463.30039 319.89922 460.90039 322.69922 C 456.20039 328.09922 450.9 332.89961 446 338.09961 C 418.1 366.69961 397.59961 399.40039 390.59961 439.40039 C 390.29961 441.00039 388.60039 454.00078 386.40039 469.80078 C 386.40039 471.30078 386.29922 472.79961 386.19922 474.09961 L 385.90039 473.5 C 383.40039 491.8 380.89922 525.60078 382.19922 533.80078 C 383.99922 545.40078 385.29961 557.20039 393.09961 566.90039 C 399.99961 580.30039 413.50078 589.89922 416.30078 605.69922 C 421.60078 636.29922 440.1 653.80039 466.5 663.40039 C 456.2 644.60039 451.7 594.40039 452.5 593.90039 C 450.2 544.40039 482.69961 498.60039 535.59961 477.90039 C 542.99961 475.00039 549.49961 471.80078 554.59961 465.30078 C 561.39961 456.70078 577.70039 452.50078 593.40039 453.30078 C 609.10039 452.50078 625.39922 456.70078 632.19922 465.30078 C 637.29922 471.80078 643.79922 475.00039 651.19922 477.90039 C 704.09922 498.60039 736.60078 544.40039 734.30078 593.90039 C 735.00078 594.40039 730.8 642.3 721 662 C 744.2 652.1 760.90039 635.99922 765.90039 610.19922 C 767.80039 600.39922 771.39961 591.70039 777.59961 583.90039 C 780.99961 579.60039 785.29961 575.69922 785.59961 569.69922 C 790.49961 567.19922 792.10078 562.40078 793.80078 557.80078 C 796.90078 549.60078 798.29922 540.49961 804.19922 533.59961 C 801.39922 528.89961 790.39961 443.9 789.59961 439.5 C 782.49961 399.7 761.99961 366.90078 734.09961 338.30078 C 729.19961 333.10078 723.89922 327.99961 719.19922 322.59961 C 716.39922 319.39961 712.49961 316.4 715.59961 311 C 687.89961 308.2 660.40039 303.30039 632.40039 301.40039 C 619.57539 300.52539 606.79453 300.075 594.05078 300.04688 z M 715.59961 311 L 715.80078 311 L 715.80078 310.80078 L 715.69922 310.80078 C 715.69922 310.90078 715.59961 310.9 715.59961 311 z M 804.19922 533.59961 C 804.19922 533.69961 804.09961 533.70078 804.09961 533.80078 C 804.09961 533.90078 804.19922 533.90039 804.19922 533.90039 L 804.19922 533.59961 z M 429.30078 311.19922 C 398.10078 313.19922 366.60039 316.29961 339.90039 333.59961 C 318.20039 347.59961 301.00078 367.50039 282.30078 385.40039 C 268.30078 398.80039 241.00039 430.80039 242.90039 435.90039 C 244.80039 441.00039 278.1 462.8 290 478 C 301.9 493.2 318.19961 535.19922 321.09961 538.19922 C 331.79961 549.49922 336 548.49961 341 533.59961 C 343.7 531.29961 354.89922 444 355.69922 439.5 C 362.69922 399.5 383.19961 366.79922 411.09961 338.19922 C 415.79961 332.99922 421.10078 328.20078 425.80078 322.80078 C 428.60078 319.60078 432.60078 316.39922 429.30078 311.19922 z M 750.80078 311.19922 C 747.50078 316.39922 751.50078 319.60078 754.30078 322.80078 C 759.00078 328.20078 764.29922 332.99922 769.19922 338.19922 C 797.09922 366.79922 817.59961 399.5 824.59961 439.5 C 825.39961 444 836.60078 531.29961 839.30078 533.59961 C 844.30078 548.59961 848.39922 549.49922 859.19922 538.19922 C 862.09922 535.19922 878.40078 493.2 890.30078 478 C 902.20078 462.8 935.50039 441.00039 937.40039 435.90039 C 939.00039 430.90039 911.80078 398.80039 897.80078 385.40039 C 879.10078 367.50039 861.79922 347.59961 840.19922 333.59961 C 813.49922 316.29961 782.00078 313.09922 750.80078 311.19922 z M 434.90039 383.09961 C 436.00039 383.19961 436.40039 383.70039 436.40039 384.40039 C 435.90039 383.90039 435.40039 383.39961 434.90039 383.09961 z M 464.30078 402.19922 C 488.40078 402.19922 507.90039 421.70078 507.90039 445.80078 C 507.90039 469.90078 488.40078 489.40039 464.30078 489.40039 C 440.20078 489.40039 420.69922 469.90078 420.69922 445.80078 C 420.69922 421.70078 440.20078 402.19922 464.30078 402.19922 z M 725.80078 402.19922 C 749.90078 402.19922 769.40039 421.70078 769.40039 445.80078 C 769.40039 469.90078 749.90078 489.40039 725.80078 489.40039 C 701.70078 489.40039 682.19922 469.90078 682.19922 445.80078 C 682.19922 421.70078 701.70078 402.19922 725.80078 402.19922 z M 772.40039 452.59961 C 772.20039 452.99961 772.1 453.29922 772 453.69922 L 772 452.80078 C 772.3 452.50078 772.50039 452.39961 772.40039 452.59961 z M 772.09961 458.5 C 772.29961 460 772.49961 461.40078 772.09961 462.80078 C 772.09961 462.20078 772.00039 461.80039 771.90039 461.40039 C 772.00039 460.40039 771.99961 459.5 772.09961 458.5 z M 687.69922 472.09961 C 687.69922 472.19961 687.70078 472.20078 687.80078 472.30078 C 687.70078 472.30078 687.6 472.19922 687.5 472.19922 C 687.5 472.19922 687.59922 472.19961 687.69922 472.09961 z M 600.02539 484.81836 C 598.48516 484.77266 596.93789 484.80039 595.40039 484.90039 C 583.10039 484.20039 570.20039 488.1 564.90039 496 C 560.90039 502 555.8 504.89961 550 507.59961 C 508.5 526.79961 482.89922 569.2 484.69922 615 C 483.99922 615.6 491.00039 676.60039 501.90039 684.90039 C 506.20039 687.10039 557.10039 699.80078 595.40039 699.80078 C 633.70039 699.80078 687.00078 687.00039 691.30078 684.90039 C 702.20078 676.60039 706.89922 615.5 706.19922 615 C 707.89922 569.2 682.40078 526.79961 640.80078 507.59961 C 635.00078 504.89961 629.90039 502 625.90039 496 C 621.26289 489 610.80703 485.13828 600.02539 484.81836 z " />
</svg>

<svg xmlns="http://www.w3.org/2000/svg" viewBox="0 0 1200 1000"><path d="M715.8 310.8h-.1c0 .1-.1.1-.1.2h.2v-.2zm-75 196.8c-5.8-2.7-10.9-5.6-14.9-11.6-5.3-8-18.2-11.9-30.5-11.1-12.3-.7-25.2 3.2-30.5 11.1-4 6-9.1 8.9-14.9 11.6-41.5 19.2-67.1 61.6-65.3 107.4-.7.6 6.3 61.6 17.2 69.9 4.3 2.2 55.2 14.9 93.5 14.9s91.6-12.8 95.9-14.9c10.9-8.3 15.6-69.4 14.9-69.9 1.7-45.8-23.8-88.2-65.4-107.4zm257-122.2c-18.7-17.9-36-37.8-57.6-51.8-26.7-17.3-58.2-20.5-89.4-22.4-3.3 5.2.7 8.4 3.5 11.6 4.7 5.4 10 10.2 14.9 15.4 27.9 28.6 48.4 61.3 55.4 101.3.8 4.5 12 91.8 14.7 94.1 5 15 9.1 15.9 19.9 4.6 2.9-3 19.2-45 31.1-60.2 11.9-15.2 45.2-37 47.1-42.1 1.6-5-25.6-37.1-39.6-50.5zm-472-62.6c2.8-3.2 6.8-6.4 3.5-11.6-31.2 2-62.7 5.1-89.4 22.4-21.7 14-38.9 33.9-57.6 51.8-14 13.4-41.3 45.4-39.4 50.5 1.9 5.1 35.2 26.9 47.1 42.1 11.9 15.2 28.2 57.2 31.1 60.2 10.7 11.3 14.9 10.3 19.9-4.6 2.7-2.3 13.9-89.6 14.7-94.1 7-40 27.5-72.7 55.4-101.3 4.7-5.2 10-10 14.7-15.4zm378.4 211.1v-.3c0 .1-.1.1-.1.2s.1.1.1.1z"/><path d="M734.1 338.3c-4.9-5.2-10.2-10.3-14.9-15.7-2.8-3.2-6.7-6.2-3.6-11.6-27.7-2.8-55.2-7.7-83.2-9.6-51.3-3.5-101.9-.2-152.2 9.7-5 1-9.7 2.7-14.6.2 0 .7-.1 1.3-.2 1.9 1.2 4-2.1 6.7-4.5 9.5-4.7 5.4-10 10.2-14.9 15.4-27.9 28.6-48.4 61.3-55.4 101.3-.3 1.6-2 14.6-4.2 30.4 0 1.5-.1 3-.2 4.3l-.3-.6c-2.5 18.3-5 52.1-3.7 60.3 1.8 11.6 3.1 23.4 10.9 33.1 6.9 13.4 20.4 23 23.2 38.8 5.3 30.6 23.8 48.1 50.2 57.7-10.3-18.8-14.8-69-14-69.5-2.3-49.5 30.2-95.3 83.1-116 7.4-2.9 13.9-6.1 19-12.6 6.8-8.6 23.1-12.8 38.8-12 15.7-.8 32 3.4 38.8 12 5.1 6.5 11.6 9.7 19 12.6 52.9 20.7 85.4 66.5 83.1 116 .7.5-3.5 48.4-13.3 68.1 23.2-9.9 39.9-26 44.9-51.8 1.9-9.8 5.5-18.5 11.7-26.3 3.4-4.3 7.7-8.2 8-14.2 4.9-2.5 6.5-7.3 8.2-11.9 3.1-8.2 4.5-17.3 10.4-24.2-2.8-4.7-13.8-89.7-14.6-94.1-7.1-39.8-27.6-72.6-55.5-101.2zm-297.7 46.1c-.5-.5-1-1-1.5-1.3 1.1.1 1.5.6 1.5 1.3zm27.9 105c-24.1 0-43.6-19.5-43.6-43.6s19.5-43.6 43.6-43.6 43.6 19.5 43.6 43.6-19.5 43.6-43.6 43.6zm223.2-17.2s.1 0 .2-.1c0 .1 0 .1.1.2-.1 0-.2-.1-.3-.1zm38.3 17.2c-24.1 0-43.6-19.5-43.6-43.6s19.5-43.6 43.6-43.6 43.6 19.5 43.6 43.6-19.5 43.6-43.6 43.6zm46.3-26.6c0-.6-.1-1-.2-1.4.1-1 .1-1.9.2-2.9.2 1.5.4 2.9 0 4.3zm.3-10.2c-.2.4-.3.7-.4 1.1v-.9c.3-.3.5-.4.4-.2z"/></svg>
